svgs/regular/bath.svg

<svg xmlns="http://www.w3.org/2000/svg" viewBox="0 0 512 512"><!--! Font Awesome Pro 6.0.0-alpha3 by @fontawesome - https://fontawesome.com License - https://fontawesome.com/license (Commercial License) --><path d="M488 256.1H80V69.36c0-8.623 5.25-16.37 13.12-19.62c8-3.25 17.12-1.5 23.12 4.623l3.162 3.162C106.4 84.63 110.9 117.1 133.4 140.5l14.84 14.85c-5.936 9.285-5.281 21.56 2.834 29.67C155.7 189.7 161.9 192 168 192s12.28-2.344 16.97-7.031l96-96c9.375-9.375 9.375-24.56 0-33.94c-4.562-4.562-10.44-6.768-16.36-6.766c-4.609 0-9.246 1.334-13.31 3.932L236.5 37.35C213.1 14.86 180.5 10.42 153.4 23.49L151.9 22.01C136.4 6.529 114.8-2.289 93.04 .5156C57.11 5.158 32 35.21 32 69.36v186.7L24 256.1c-13.25 0-24 10.71-24 23.96s10.75 24.02 24 24.02H32v79.96c0 27.12 11.75 52.97 32 71.09v32.9C64 501.3 74.75 512 88 512s24-10.74 24-23.99v-9.623c5.25 1 10.62 1.495 16 1.62h256c5.375-.125 10.75-.6198 16-1.62v9.623C400 501.3 410.7 512 424 512S448 501.3 448 488v-32.9c20.25-18.12 32-43.97 32-71.09V304.1h8c13.25 0 24-10.77 24-24.02S501.3 256.1 488 256.1zM202.5 71.29l14.13 14.13L181.4 120.6L167.3 106.5C157.6 96.8 157.6 81 167.3 71.29C177 61.57 192.8 61.55 202.5 71.29zM432 384c0 26.49-21.5 47.99-48 47.99H128c-26.5 0-48-21.49-48-47.99V304.1h352V384z"/></svg>

<svg xmlns="http://www.w3.org/2000/svg" viewBox="0 0 512 512"><!-- Font Awesome Pro 6.0.0-alpha2 by @fontawesome - https://fontawesome.com License - https://fontawesome.com/license (Commercial License) --><path d="M488 256.064H80V69.361C80 60.738 85.25 52.99 93.125 49.742C101.125 46.492 110.25 48.242 116.25 54.365L119.412 57.527C106.438 84.633 110.895 117.992 133.354 140.451L148.197 155.297C142.262 164.582 142.916 176.854 151.031 184.969C155.719 189.656 161.859 192 168 192S180.281 189.656 184.969 184.969L280.969 88.969C290.344 79.594 290.344 64.406 280.969 55.031C276.406 50.469 270.529 48.264 264.607 48.266C259.998 48.266 255.361 49.6 251.297 52.197L236.451 37.352C213.959 14.861 180.516 10.42 153.371 23.494L151.885 22.008C136.402 6.529 114.752 -2.289 93.037 0.516C57.111 5.158 32 35.215 32 69.361V256.064H24C10.746 256.064 0 266.807 0 280.059S10.746 304.053 24 304.053H32V384.031C32 411.15 43.75 437.018 64 455.139V488.006C64 501.258 74.746 512 88 512S112 501.258 112 488.006V478.383C117.25 479.383 122.625 479.883 128 480.008H384C389.375 479.883 394.75 479.383 400 478.383V488.006C400 501.258 410.746 512 424 512S448 501.258 448 488.006V455.139C468.25 437.018 480 411.15 480 384.031V304.053H488C501.254 304.053 512 293.311 512 280.059S501.254 256.064 488 256.064ZM202.51 71.293L216.637 85.42L181.42 120.637L167.295 106.51C157.586 96.801 157.586 81.002 167.293 71.293C177.021 61.568 192.77 61.553 202.51 71.293ZM432 384.031C432 410.525 410.5 432.02 384 432.02H128C101.5 432.02 80 410.525 80 384.031V304.053H432V384.031Z"/></svg>
